Newaita-dark/apps/48/kmines.svg

<svg height="48pt" viewBox="0 0 48 48" width="48pt" xmlns="http://www.w3.org/2000/svg" xmlns:xlink="http://www.w3.org/1999/xlink"><linearGradient id="a"><stop offset="0" stop-opacity=".313725"/><stop offset=".222222" stop-opacity=".27451"/><stop offset="1" stop-opacity="0"/></linearGradient><radialGradient id="b" cx="450.908936" cy="189.579361" gradientTransform="matrix(.00000026 -.117199 -.210958 -.00000015 63.31174 95.392999)" gradientUnits="userSpaceOnUse" r="21.166656" xlink:href="#a"/><radialGradient id="c" cx="450.908936" cy="189.579361" gradientTransform="matrix(-.00000026 .117199 .210958 .00000015 -15.682186 -11.291218)" gradientUnits="userSpaceOnUse" r="21.166656" xlink:href="#a"/><radialGradient id="d" cx="450.908936" cy="189.579361" gradientTransform="matrix(-.00000026 -.117199 .210958 -.00000015 -15.682186 95.392999)" gradientUnits="userSpaceOnUse" r="21.166656" xlink:href="#a"/><radialGradient id="e" cx="450.908936" cy="189.579361" gradientTransform="matrix(.00000026 .117199 -.210958 .00000015 63.311737 -11.291219)" gradientUnits="userSpaceOnUse" r="21.166656" xlink:href="#a"/><linearGradient id="f"><stop offset="0" stop-color="#424242"/><stop offset="1" stop-color="#616161"/></linearGradient><linearGradient id="g" gradientUnits="userSpaceOnUse" x1="960" x2="960" xlink:href="#f" y1="1695.118164" y2="175.118134"/><linearGradient id="h" gradientUnits="userSpaceOnUse" x1="23.814786" x2="23.814786" y1="38.08177100005" y2="8.3132869999"><stop offset="0" stop-color="#616161"/><stop offset="1" stop-color="#757575"/></linearGradient><linearGradient id="i" gradientUnits="userSpaceOnUse" x1="254" x2="254" xlink:href="#f" y1="53.583332" y2="11.25"/><path d="m23.816406 42.050781h3.96875v-1.984375h-3.96875zm0 0" fill="url(#b)"/><path d="m23.816406 42.050781h-3.972656v1.984375h3.972656zm0 0" fill="url(#c)"/><path d="m23.816406 42.050781h-3.972656v-1.984375h3.972656zm0 0" fill="url(#d)"/><path d="m23.816406 42.050781h3.96875v1.984375h-3.96875zm0 0" fill="url(#e)"/><path d="m960.065849 175.101398c-44.405211 0-79.992365 35.74462-79.992365 79.992365v486.882665l-344.376581-344.219115c-31.335592-31.335592-81.724483-31.335592-113.060075 0-31.335592 31.335591-31.335592 81.724483 0 113.060075l344.219115 344.376581h-486.882664c-44.247746 0-79.992366 35.587154-79.992366 79.992365 0 44.247745 35.74462 79.992365 79.992366 79.992365h486.882664l-344.219115 344.219116c-31.335592 31.335591-31.335592 81.724483 0 113.060075s81.724483 31.335592 113.060075 0l344.376581-344.219115v486.882664c0 44.247745 35.587154 79.992365 79.992365 79.992365 44.247745 0 79.992365-35.74462 79.992365-79.992365v-486.882664l344.219116 344.219115c31.335592 31.335592 81.724483 31.335592 113.060075 0s31.335592-81.724484 0-113.060075l-344.219115-344.219116h486.882664c44.247746 0 79.992366-35.74462 79.992366-79.992365 0-44.405211-35.74462-79.992365-79.992366-79.992365h-486.882664l344.219115-344.376581c31.335592-31.335592 31.335592-81.724484 0-113.060075-31.335592-31.335592-81.724483-31.335592-113.060075 0l-344.219116 344.219115v-486.882665c0-44.247745-35.74462-79.992365-79.992365-79.992365zm0 0" fill="url(#g)" stroke="#212121" stroke-linecap="round" stroke-width="11.338583" transform="scale(.0248071)"/><path d="m23.816406 8.3125c8.21875 0 14.882813 6.664062 14.882813 14.886719 0 8.21875-6.664063 14.882812-14.882813 14.882812-8.222656 0-14.886718-6.664062-14.886718-14.882812 0-8.222657 6.664062-14.886719 14.886718-14.886719zm0 0" fill="url(#h)"/><path d="m254.017409 11.270059c11.665553 0 21.164646 9.45743 21.164646 21.164645 0 11.665553-9.499093 21.164646-21.164646 21.164646-11.707215 0-21.164645-9.499093-21.164645-21.164646 0-11.707215 9.45743-21.164645 21.164645-21.164645zm0 0" fill="url(#i)" stroke="#212121" stroke-linecap="round" stroke-width="3" transform="matrix(.093759 0 0 .093759 0 20.158175)"/><path d="m23.816406 8.3125c-8.246094 0-14.886718 6.640625-14.886718 14.886719 0 .082031 0 .164062.003906.246093.128906-8.128906 6.71875-14.636718 14.882812-14.636718 8.160156 0 14.75 6.507812 14.878906 14.636718.003907-.082031.003907-.164062.003907-.246093 0-8.246094-6.636719-14.886719-14.882813-14.886719zm0 0" fill="#fff" fill-opacity=".392157"/><path d="m23.816406 38.082031c-8.246094 0-14.886718-6.636719-14.886718-14.882812 0-.085938 0-.167969.003906-.25.128906 8.128906 6.71875 14.636719 14.882812 14.636719 8.160156 0 14.75-6.507813 14.878906-14.636719.003907.082031.003907.164062.003907.25 0 8.246093-6.636719 14.882812-14.882813 14.882812zm0 0" fill-opacity=".235294"/><path d="m254.017409-126.3418c87.658296 0 158.734842 71.076546 158.734842 158.776504 0 87.658296-71.076546 158.734842-158.734842 158.734842-87.699958 0-158.776504-71.076546-158.776504-158.734842 0-87.699958 71.076546-158.776504 158.776504-158.776504zm0 0" fill="none" stroke="#212121" stroke-linecap="round" stroke-width="2.904737" transform="matrix(.093759 0 0 .093759 0 20.158175)"/></svg>

<?xml version="1.0" encoding="UTF-8"?>
<svg xmlns="http://www.w3.org/2000/svg" xmlns:xlink="http://www.w3.org/1999/xlink" width="48pt" height="48pt" viewBox="0 0 48 48" version="1.1">
<defs>
<radialGradient id="radial0" gradientUnits="userSpaceOnUse" cx="450.908936" cy="189.579361" fx="450.908936" fy="189.579361" r="21.166656" gradientTransform="matrix(0.000000261256,-0.117199,-0.210958,-0.000000152308,63.31174,95.392999)">
<stop offset="0" style="stop-color:rgb(0%,0%,0%);stop-opacity:0.313725;"/>
<stop offset="0.222222" style="stop-color:rgb(0%,0%,0%);stop-opacity:0.27451;"/>
<stop offset="1" style="stop-color:rgb(0%,0%,0%);stop-opacity:0;"/>
</radialGradient>
<radialGradient id="radial1" gradientUnits="userSpaceOnUse" cx="450.908936" cy="189.579361" fx="450.908936" fy="189.579361" r="21.166656" gradientTransform="matrix(-0.000000261256,0.117199,0.210958,0.000000152308,-15.682186,-11.291218)">
<stop offset="0" style="stop-color:rgb(0%,0%,0%);stop-opacity:0.313725;"/>
<stop offset="0.222222" style="stop-color:rgb(0%,0%,0%);stop-opacity:0.27451;"/>
<stop offset="1" style="stop-color:rgb(0%,0%,0%);stop-opacity:0;"/>
</radialGradient>
<radialGradient id="radial2" gradientUnits="userSpaceOnUse" cx="450.908936" cy="189.579361" fx="450.908936" fy="189.579361" r="21.166656" gradientTransform="matrix(-0.000000261256,-0.117199,0.210958,-0.000000152308,-15.682186,95.392999)">
<stop offset="0" style="stop-color:rgb(0%,0%,0%);stop-opacity:0.313725;"/>
<stop offset="0.222222" style="stop-color:rgb(0%,0%,0%);stop-opacity:0.27451;"/>
<stop offset="1" style="stop-color:rgb(0%,0%,0%);stop-opacity:0;"/>
</radialGradient>
<radialGradient id="radial3" gradientUnits="userSpaceOnUse" cx="450.908936" cy="189.579361" fx="450.908936" fy="189.579361" r="21.166656" gradientTransform="matrix(0.000000261256,0.117199,-0.210958,0.000000152308,63.311737,-11.291219)">
<stop offset="0" style="stop-color:rgb(0%,0%,0%);stop-opacity:0.313725;"/>
<stop offset="0.222222" style="stop-color:rgb(0%,0%,0%);stop-opacity:0.27451;"/>
<stop offset="1" style="stop-color:rgb(0%,0%,0%);stop-opacity:0;"/>
</radialGradient>
<linearGradient id="linear0" gradientUnits="userSpaceOnUse" x1="960" y1="1695.118164" x2="960" y2="175.118134" gradientTransform="matrix(1,0,0,1,0,0)">
<stop offset="0" style="stop-color:rgb(25.882353%,25.882353%,25.882353%);stop-opacity:1;"/>
<stop offset="1" style="stop-color:rgb(38.039216%,38.039216%,38.039216%);stop-opacity:1;"/>
</linearGradient>
<linearGradient id="linear1" gradientUnits="userSpaceOnUse" x1="254" y1="191.166672" x2="254" y2="-126.333344" gradientTransform="matrix(0.093759,0,0,0.093759,0,20.158175)">
<stop offset="0" style="stop-color:rgb(38.039216%,38.039216%,38.039216%);stop-opacity:1;"/>
<stop offset="1" style="stop-color:rgb(45.882353%,45.882353%,45.882353%);stop-opacity:1;"/>
</linearGradient>
<linearGradient id="linear2" gradientUnits="userSpaceOnUse" x1="254" y1="53.583332" x2="254" y2="11.25" gradientTransform="matrix(1,0,0,1,0,0)">
<stop offset="0" style="stop-color:rgb(25.882353%,25.882353%,25.882353%);stop-opacity:1;"/>
<stop offset="1" style="stop-color:rgb(38.039216%,38.039216%,38.039216%);stop-opacity:1;"/>
</linearGradient>
</defs>
<g id="surface1">
<path style=" stroke:none;fill-rule:nonzero;fill:url(#radial0);" d="M 23.816406 42.050781 L 27.785156 42.050781 L 27.785156 40.066406 L 23.816406 40.066406 Z M 23.816406 42.050781 "/>
<path style=" stroke:none;fill-rule:nonzero;fill:url(#radial1);" d="M 23.816406 42.050781 L 19.84375 42.050781 L 19.84375 44.035156 L 23.816406 44.035156 Z M 23.816406 42.050781 "/>
<path style=" stroke:none;fill-rule:nonzero;fill:url(#radial2);" d="M 23.816406 42.050781 L 19.84375 42.050781 L 19.84375 40.066406 L 23.816406 40.066406 Z M 23.816406 42.050781 "/>
<path style=" stroke:none;fill-rule:nonzero;fill:url(#radial3);" d="M 23.816406 42.050781 L 27.785156 42.050781 L 27.785156 44.035156 L 23.816406 44.035156 Z M 23.816406 42.050781 "/>
<path style="fill-rule:nonzero;fill:url(#linear0);stroke-width:11.338583;stroke-linecap:round;stroke-linejoin:miter;stroke:rgb(12.941177%,12.941177%,12.941177%);stroke-opacity:1;stroke-miterlimit:4;" d="M 960.065849 175.101398 C 915.660638 175.101398 880.073484 210.846018 880.073484 255.093763 L 880.073484 741.976428 L 535.696903 397.757313 C 504.361311 366.421721 453.97242 366.421721 422.636828 397.757313 C 391.301236 429.092904 391.301236 479.481796 422.636828 510.817388 L 766.855943 855.193969 L 279.973279 855.193969 C 235.725533 855.193969 199.980913 890.781123 199.980913 935.186334 C 199.980913 979.434079 235.725533 1015.178699 279.973279 1015.178699 L 766.855943 1015.178699 L 422.636828 1359.397815 C 391.301236 1390.733406 391.301236 1441.122298 422.636828 1472.45789 C 453.97242 1503.793482 504.361311 1503.793482 535.696903 1472.45789 L 880.073484 1128.238775 L 880.073484 1615.121439 C 880.073484 1659.369184 915.660638 1695.113804 960.065849 1695.113804 C 1004.313594 1695.113804 1040.058214 1659.369184 1040.058214 1615.121439 L 1040.058214 1128.238775 L 1384.27733 1472.45789 C 1415.612922 1503.793482 1466.001813 1503.793482 1497.337405 1472.45789 C 1528.672997 1441.122298 1528.672997 1390.733406 1497.337405 1359.397815 L 1153.11829 1015.178699 L 1640.000954 1015.178699 C 1684.2487 1015.178699 1719.99332 979.434079 1719.99332 935.186334 C 1719.99332 890.781123 1684.2487 855.193969 1640.000954 855.193969 L 1153.11829 855.193969 L 1497.337405 510.817388 C 1528.672997 479.481796 1528.672997 429.092904 1497.337405 397.757313 C 1466.001813 366.421721 1415.612922 366.421721 1384.27733 397.757313 L 1040.058214 741.976428 L 1040.058214 255.093763 C 1040.058214 210.846018 1004.313594 175.101398 960.065849 175.101398 Z M 960.065849 175.101398 " transform="matrix(0.0248071,0,0,0.0248071,0,0)"/>
<path style=" stroke:none;fill-rule:nonzero;fill:url(#linear1);" d="M 23.816406 8.3125 C 32.035156 8.3125 38.699219 14.976562 38.699219 23.199219 C 38.699219 31.417969 32.035156 38.082031 23.816406 38.082031 C 15.59375 38.082031 8.929688 31.417969 8.929688 23.199219 C 8.929688 14.976562 15.59375 8.3125 23.816406 8.3125 Z M 23.816406 8.3125 "/>
<path style="fill-rule:nonzero;fill:url(#linear2);stroke-width:3;stroke-linecap:round;stroke-linejoin:miter;stroke:rgb(12.941177%,12.941177%,12.941177%);stroke-opacity:1;stroke-miterlimit:4;" d="M 254.017409 11.270059 C 265.682962 11.270059 275.182055 20.727489 275.182055 32.434704 C 275.182055 44.100257 265.682962 53.59935 254.017409 53.59935 C 242.310194 53.59935 232.852764 44.100257 232.852764 32.434704 C 232.852764 20.727489 242.310194 11.270059 254.017409 11.270059 Z M 254.017409 11.270059 " transform="matrix(0.093759,0,0,0.093759,0,20.158175)"/>
<path style=" stroke:none;fill-rule:nonzero;fill:rgb(100%,100%,100%);fill-opacity:0.392157;" d="M 23.816406 8.3125 C 15.570312 8.3125 8.929688 14.953125 8.929688 23.199219 C 8.929688 23.28125 8.929688 23.363281 8.933594 23.445312 C 9.0625 15.316406 15.652344 8.808594 23.816406 8.808594 C 31.976562 8.808594 38.566406 15.316406 38.695312 23.445312 C 38.699219 23.363281 38.699219 23.28125 38.699219 23.199219 C 38.699219 14.953125 32.0625 8.3125 23.816406 8.3125 Z M 23.816406 8.3125 "/>
<path style=" stroke:none;fill-rule:nonzero;fill:rgb(0%,0%,0%);fill-opacity:0.235294;" d="M 23.816406 38.082031 C 15.570312 38.082031 8.929688 31.445312 8.929688 23.199219 C 8.929688 23.113281 8.929688 23.03125 8.933594 22.949219 C 9.0625 31.078125 15.652344 37.585938 23.816406 37.585938 C 31.976562 37.585938 38.566406 31.078125 38.695312 22.949219 C 38.699219 23.03125 38.699219 23.113281 38.699219 23.199219 C 38.699219 31.445312 32.0625 38.082031 23.816406 38.082031 Z M 23.816406 38.082031 "/>
<path style="fill:none;stroke-width:2.904737;stroke-linecap:round;stroke-linejoin:miter;stroke:rgb(12.941177%,12.941177%,12.941177%);stroke-opacity:1;stroke-miterlimit:4;" d="M 254.017409 -126.3418 C 341.675705 -126.3418 412.752251 -55.265254 412.752251 32.434704 C 412.752251 120.093 341.675705 191.169546 254.017409 191.169546 C 166.317451 191.169546 95.240905 120.093 95.240905 32.434704 C 95.240905 -55.265254 166.317451 -126.3418 254.017409 -126.3418 Z M 254.017409 -126.3418 " transform="matrix(0.093759,0,0,0.093759,0,20.158175)"/>
</g>
</svg>
